X: 891
T: Gördüm Seni Oldum Esîr
C: Nikoğos Ağa
O: Turkey
F: http://compmusic.upf.edu/node/140
N: saba--sarki--duyek--gordum_seni--nikogos_aga
N: makam= saba
N: form= sarki
N: usul= duyek = 8/4
M: 8/4
L: 1/16
K: C _2/4B _3/4d  
Q: 1/4=126
%%MIDI tuningsystem comma53
B2 c4 d2 c3/2e/ dc cB A2  | A2 GA G2 A2 B3/2A/ Bc BA B2  | 
w:  Gör *  *  düm  *  *  *  se  |  *  ni   | 
G2 AB c3/2e/ dc cd cB (3cBA Bc  | \
w:  ol *  *  *  *  *  *  dum  *  *  *  e  | 
B2 c4 _7/8a2 gf ed c2 z2  | 
w:  sîr    | 
f2 g4 f2 g_7/8a2g gf ed  | c2 cd c2 de ef/g/ ed c3/2B/ AB  | 
w:  Bil *  *  dir  *  *  gü  |  *  zel   | 
G2 AB cd/e/ dc cd cB (3cBA Bc  | B2 c4 _7/8a2 gf ed c4  | 
w:  is *  *  *  *  *  *  *  min  *  *  *  ne  |  dir    | 
c2 d4 dc de2d cB A2  | A2 GA B2 c2 BA Bc B3/2A/ B2  | 
w:  Bil *  *  *  dir  *  *  gü  |  *  zel   | 
G2 AB cd/e/ dc cd cB BA (3cBA  | A6 ef e=d cd e4  | 
w:  is *  *  *  *  *  *  *  min  *  *  *  ne  |  dir   SAZ  | 
=d2 e2 ef ed gf ed e3/2d/ c2  | ag gf fe ed dc2d (3cBA B2  | 
w:  Aş *  *  *  *  *  kım  *  *  *  sa  |  na   | 
G2 AB cd/e/ dc cd cB (3cBA Bc  | B2 c4 _7/8a2 gf ed c4  | 
w:  şâ *  *  *  *  *  *  *  yes *  *  *  te  |  dir    | 
f2 g4 f2 g_7/8a2g gf ed  | c2 cd c2 de ef/g/ ed c3/2B/ AB  | 
w:  Bil *  *  dir  *  *  gü  |  *  zel   | 
G2 AB cd/e/ dc cd cB (3cBA Bc  | B2 c4 _7/8a2 gf ed c4  | 
w:  is *  *  *  *  *  *  *  min  *  *  *  ne  |  dir    | 
c2 d4 dc de2d cB A2  | A2 GA B2 c2 BA Bc B3/2A/ B2  | 
w:  Bil *  *  *  dir  *  *  gü  |  *  zel   | 
G2 AB cd/e/ dc cd cB BA (3cBA  | A6 |
w:  is *  *  *  *  *  *  *  min  *  *  *  ne  |  dir    | 


